X:1
T:The Hag At The Churn
R:jig
M:6/8
L:1/8
K:Dmix
|:~A2G ADD|~A2G Adc|~A2G ADD|EFG EFG:|
|AdB ~c2c|Add efg|AdB ~c2c|EDE GED|
|AdB ~c2c|Add efg|fge dcA|GEF GED|